assets/images/svg-icons/instagram.svg

<?xml version="1.0" encoding="utf-8"?>
<!-- Generated by IcoMoon.io -->
<!DOCTYPE svg PUBLIC "-//W3C//DTD SVG 1.1//EN" "http://www.w3.org/Graphics/SVG/1.1/DTD/svg11.dtd">
<svg version="1.1" xmlns="http://www.w3.org/2000/svg" xmlns:xlink="http://www.w3.org/1999/xlink" width="32" height="32" viewBox="0 0 32 32">
<path fill="#444" d="M29 0h-26c-1.65 0-3 1.35-3 3v26c0 1.65 1.35 3 3 3h26c1.65 0 3-1.35 3-3v-26c0-1.65-1.35-3-3-3zM22 5c0-0.55 0.45-1 1-1h4c0.55 0 1 0.45 1 1v4c0 0.55-0.45 1-1 1h-4c-0.55 0-1-0.45-1-1v-4zM16 10c3.313 0 6 2.688 6 6s-2.688 6-6 6c-3.313 0-6-2.688-6-6s2.688-6 6-6zM28 27v0c0 0.55-0.45 1-1 1h-22c-0.55 0-1-0.45-1-1v0-13h2.2c-0.131 0.644-0.2 1.313-0.2 2 0 5.525 4.475 10 10 10s10-4.475 10-10c0-0.688-0.069-1.356-0.2-2h2.2v13z"></path>
</svg>

<svg xmlns="http://www.w3.org/2000/svg" width="32" height="32" viewBox="0 0 32 32"><path fill="#444" d="M29 0H3C1.35 0 0 1.35 0 3v26c0 1.65 1.35 3 3 3h26c1.65 0 3-1.35 3-3V3c0-1.65-1.35-3-3-3zm-7 5c0-.55.45-1 1-1h4c.55 0 1 .45 1 1v4c0 .55-.45 1-1 1h-4c-.55 0-1-.45-1-1V5zm-6 5c3.313 0 6 2.688 6 6s-2.688 6-6 6c-3.313 0-6-2.688-6-6s2.688-6 6-6zm12 17c0 .55-.45 1-1 1H5c-.55 0-1-.45-1-1V14h2.2c-.13.644-.2 1.313-.2 2 0 5.525 4.475 10 10 10s10-4.475 10-10c0-.688-.07-1.356-.2-2H28v13z"/></svg>
